svgs/google_authenticator.svg

<svg width="192" height="192" viewBox="0 0 192 192" fill="none" xmlns="http://www.w3.org/2000/svg"><path d="M170 96h6a6 6 0 0 0-6-6v6Zm-21.674-52.326 4.243 4.243a6 6 0 0 0 0-8.485l-4.243 4.242ZM96 90a6 6 0 0 0 0 12V90Zm26.87-20.87-4.243 4.243a6.003 6.003 0 0 0 8.486 0l-4.243-4.243ZM164 96a68.003 68.003 0 0 1-15.435 43.139l9.276 7.613A80.005 80.005 0 0 0 176 96h-12Zm-15.435 43.139a68.008 68.008 0 0 1-39.299 23.555l2.341 11.769a80.003 80.003 0 0 0 46.234-27.711l-9.276-7.613Zm-39.299 23.555a68.002 68.002 0 0 1-45.321-6.723l-5.657 10.583a79.997 79.997 0 0 0 53.319 7.909l-2.341-11.769Zm-45.321-6.723a68.002 68.002 0 0 1-30.769-33.948l-11.086 4.592a80.002 80.002 0 0 0 36.198 39.939l5.657-10.583Zm-30.769-33.948a68.001 68.001 0 0 1-2.248-45.762l-11.483-3.484a80 80 0 0 0 2.645 53.838l11.086-4.592Zm-2.248-45.762a68 68 0 0 1 27.293-36.8l-6.667-9.978a80 80 0 0 0-32.11 43.294l11.484 3.484Zm27.293-36.8a68 68 0 0 1 44.444-11.133l1.176-11.943a80 80 0 0 0-52.287 13.098l6.667 9.977Zm44.444-11.133a67.997 67.997 0 0 1 41.418 19.589l8.486-8.485a80.002 80.002 0 0 0-48.728-23.047l-1.176 11.943ZM170 90H96v12h74V90Zm-42 6c0 17.673-14.327 32-32 32v12c24.301 0 44-19.699 44-44h-12Zm-32 32c-17.673 0-32-14.327-32-32H52c0 24.301 19.7 44 44 44v-12ZM64 96c0-17.673 14.327-32 32-32V52c-24.3 0-44 19.7-44 44h12Zm32-32c8.838 0 16.83 3.575 22.627 9.373l8.486-8.486C119.157 56.932 108.149 52 96 52v12Zm48.083-24.568-25.456 25.455 8.486 8.486 25.456-25.456-8.486-8.485Z" fill="#000"/><circle cx="96" cy="40" r="6" fill="#000"/><circle cx="96" cy="152" r="6" fill="#000"/><circle cx="56.402" cy="56.402" r="6" transform="rotate(-45 56.402 56.402)" fill="#000"/><circle cx="40" cy="96" r="6" transform="rotate(-90 40 96)" fill="#000"/><circle cx="135.598" cy="135.598" r="6" transform="rotate(-45 135.598 135.598)" fill="#000"/><circle cx="56.402" cy="135.598" r="6" transform="rotate(-135 56.402 135.598)" fill="#000"/></svg>

<svg id="vector" xmlns="http://www.w3.org/2000/svg" width="192" height="192" viewBox="0 0 192 192"><path fill="#000000" d="M170,96H176C176,92.686 173.314,90 170,90V96ZM148.326,43.674L152.569,47.917C154.912,45.574 154.912,41.775 152.569,39.432L148.326,43.674ZM96,90C92.686,90 90,92.686 90,96C90,99.314 92.686,102 96,102V90ZM122.87,69.13L118.627,73.373C119.753,74.498 121.279,75.13 122.87,75.13C124.461,75.13 125.987,74.498 127.113,73.373L122.87,69.13ZM164,96C164,111.732 158.545,126.978 148.565,139.139L157.841,146.752C169.582,132.444 176,114.509 176,96H164ZM148.565,139.139C138.584,151.3 124.696,159.624 109.266,162.694L111.607,174.463C129.76,170.852 146.099,161.059 157.841,146.752L148.565,139.139ZM109.266,162.694C93.836,165.763 77.82,163.387 63.945,155.971L58.288,166.554C74.611,175.279 93.454,178.074 111.607,174.463L109.266,162.694ZM63.945,155.971C50.07,148.555 39.197,136.557 33.176,122.023L22.09,126.615C29.173,143.714 41.965,157.829 58.288,166.554L63.945,155.971ZM33.176,122.023C27.156,107.488 26.361,91.315 30.928,76.261L19.445,72.777C14.072,90.489 15.007,109.515 22.09,126.615L33.176,122.023ZM30.928,76.261C35.495,61.206 45.14,48.201 58.221,39.46L51.554,29.483C36.165,39.765 24.817,55.066 19.445,72.777L30.928,76.261ZM58.221,39.46C71.302,30.72 87.009,26.785 102.665,28.328L103.841,16.385C85.422,14.571 66.944,19.2 51.554,29.483L58.221,39.46ZM102.665,28.328C118.322,29.87 132.959,36.792 144.083,47.917L152.569,39.432C139.481,26.344 122.261,18.199 103.841,16.385L102.665,28.328ZM170,90H96V102H170V90ZM128,96C128,113.673 113.673,128 96,128V140C120.301,140 140,120.301 140,96H128ZM96,128C78.327,128 64,113.673 64,96H52C52,120.301 71.7,140 96,140V128ZM64,96C64,78.327 78.327,64 96,64V52C71.7,52 52,71.7 52,96H64ZM96,64C104.838,64 112.83,67.575 118.627,73.373L127.113,64.887C119.157,56.932 108.149,52 96,52V64ZM144.083,39.432L118.627,64.887L127.113,73.373L152.569,47.917L144.083,39.432Z" id="path_0"/><path fill="#000000" d="M96,40m-6,0a6,6 0,1 1,12 0a6,6 0,1 1,-12 0" id="path_1"/><path fill="#000000" d="M96,152m-6,0a6,6 0,1 1,12 0a6,6 0,1 1,-12 0" id="path_2"/><path fill="#000000" d="M56.402,56.402m-4.243,4.243a6,6 0,1 1,8.485 -8.485a6,6 0,1 1,-8.485 8.485" id="path_3"/><path fill="#000000" d="M40,96m0,6a6,6 0,1 1,0 -12a6,6 0,1 1,0 12" id="path_4"/><path fill="#000000" d="M135.598,135.598m-4.243,4.243a6,6 89.695,1 1,8.485 -8.485a6,6 89.695,1 1,-8.485 8.485" id="path_5"/><path fill="#000000" d="M56.402,135.598m4.243,4.243a6,6 87.211,1 1,-8.485 -8.485a6,6 87.211,1 1,8.485 8.485" id="path_6"/></svg>
